images/6518329.svg

<?xml version="1.0" encoding="UTF-8"?>
<svg xmlns="http://www.w3.org/2000/svg" xmlns:xlink="http://www.w3.org/1999/xlink" width="300pt" height="300pt" viewBox="0 0 300 300" version="1.1">
<defs>
<g>
<symbol overflow="visible" id="glyph0-0">
<path style="stroke:none;" d="M 0.453125 1.59375 L 0.453125 -6.34375 L 4.953125 -6.34375 L 4.953125 1.59375 Z M 0.953125 1.09375 L 4.453125 1.09375 L 4.453125 -5.84375 L 0.953125 -5.84375 Z M 0.953125 1.09375 "/>
</symbol>
<symbol overflow="visible" id="glyph0-1">
<path style="stroke:none;" d="M 0.890625 -6.5625 L 2.078125 -6.5625 L 4.984375 -1.078125 L 4.984375 -6.5625 L 5.84375 -6.5625 L 5.84375 0 L 4.65625 0 L 1.75 -5.484375 L 1.75 0 L 0.890625 0 Z M 0.890625 -6.5625 "/>
</symbol>
<symbol overflow="visible" id="glyph0-2">
<path style="stroke:none;" d="M 3.546875 -5.953125 C 2.898438 -5.953125 2.382812 -5.710938 2 -5.234375 C 1.625 -4.753906 1.4375 -4.101562 1.4375 -3.28125 C 1.4375 -2.445312 1.625 -1.789062 2 -1.3125 C 2.382812 -0.832031 2.898438 -0.59375 3.546875 -0.59375 C 4.191406 -0.59375 4.703125 -0.832031 5.078125 -1.3125 C 5.453125 -1.789062 5.640625 -2.445312 5.640625 -3.28125 C 5.640625 -4.101562 5.453125 -4.753906 5.078125 -5.234375 C 4.703125 -5.710938 4.191406 -5.953125 3.546875 -5.953125 Z M 3.546875 -6.6875 C 4.460938 -6.6875 5.195312 -6.375 5.75 -5.75 C 6.300781 -5.132812 6.578125 -4.3125 6.578125 -3.28125 C 6.578125 -2.238281 6.300781 -1.410156 5.75 -0.796875 C 5.195312 -0.179688 4.460938 0.125 3.546875 0.125 C 2.617188 0.125 1.878906 -0.179688 1.328125 -0.796875 C 0.773438 -1.410156 0.5 -2.238281 0.5 -3.28125 C 0.5 -4.3125 0.773438 -5.132812 1.328125 -5.75 C 1.878906 -6.375 2.617188 -6.6875 3.546875 -6.6875 Z M 3.546875 -6.6875 "/>
</symbol>
</g>
</defs>
<g id="surface55633">
<rect x="0" y="0" width="300" height="300" style="fill:rgb(100%,100%,100%);fill-opacity:1;stroke:none;"/>
<path style="fill:none;stroke-width:1;stroke-linecap:butt;stroke-linejoin:miter;stroke:rgb(0%,0%,0%);stroke-opacity:1;stroke-miterlimit:10;" d="M 141.105469 149.480469 L 141.105469 149.480469 M 143.691406 147.960938 L 143.015625 147.167969 M 146.277344 146.441406 L 144.925781 144.855469 M 148.867188 144.925781 L 146.839844 142.542969 M 151.453125 143.40625 L 148.75 140.230469 M 154.042969 141.886719 L 150.660156 137.917969 M 156.628906 140.371094 L 152.574219 135.605469 M 159.214844 138.851562 L 154.484375 133.292969 M 161.570312 137.46875 L 156.222656 131.191406 "/>
<path style="fill:none;stroke-width:1.2;stroke-linecap:butt;stroke-linejoin:miter;stroke:rgb(0%,0%,0%);stroke-opacity:1;stroke-miterlimit:10;" d="M 141.105469 149.480469 L 145.328125 172.460938 "/>
<path style="fill:none;stroke-width:1.2;stroke-linecap:butt;stroke-linejoin:miter;stroke:rgb(0%,0%,0%);stroke-opacity:1;stroke-miterlimit:10;" d="M 141.105469 149.480469 L 119.089844 141.644531 "/>
<path style="fill:none;stroke-width:1.2;stroke-linecap:butt;stroke-linejoin:miter;stroke:rgb(0%,0%,0%);stroke-opacity:1;stroke-miterlimit:10;" d="M 145.328125 172.460938 L 156.332031 176.378906 "/>
<path style="fill:none;stroke-width:1.2;stroke-linecap:butt;stroke-linejoin:miter;stroke:rgb(0%,0%,100%);stroke-opacity:1;stroke-miterlimit:10;" d="M 156.332031 176.378906 L 167.339844 180.296875 "/>
<path style="fill:none;stroke-width:1.2;stroke-linecap:butt;stroke-linejoin:miter;stroke:rgb(0%,0%,0%);stroke-opacity:1;stroke-miterlimit:10;" d="M 145.683594 178.425781 L 154.492188 181.558594 "/>
<path style="fill:none;stroke-width:1.2;stroke-linecap:butt;stroke-linejoin:miter;stroke:rgb(0%,0%,100%);stroke-opacity:1;stroke-miterlimit:10;" d="M 154.492188 181.558594 L 163.296875 184.695312 "/>
<path style="fill:none;stroke-width:1.2;stroke-linecap:butt;stroke-linejoin:miter;stroke:rgb(0%,0%,100%);stroke-opacity:1;stroke-miterlimit:10;" d="M 167.339844 180.296875 L 176.238281 172.722656 "/>
<path style="fill:none;stroke-width:1.2;stroke-linecap:butt;stroke-linejoin:miter;stroke:rgb(100%,0%,0%);stroke-opacity:1;stroke-miterlimit:10;" d="M 176.238281 172.722656 L 185.132812 165.148438 "/>
<path style=" stroke:none;fill-rule:nonzero;fill:rgb(100%,100%,100%);fill-opacity:1;" d="M 164.339844 174.796875 L 171.339844 174.796875 L 171.339844 185.796875 L 164.339844 185.796875 Z M 164.339844 174.796875 "/>
<g style="fill:rgb(0%,0%,100%);fill-opacity:1;">
  <use xlink:href="#glyph0-1" x="164.339844" y="183.459961"/>
</g>
<path style="fill:none;stroke-width:1.2;stroke-linecap:butt;stroke-linejoin:miter;stroke:rgb(100%,0%,0%);stroke-opacity:1;stroke-miterlimit:10;" d="M 185.132812 165.148438 L 196.140625 169.066406 "/>
<path style="fill:none;stroke-width:1.2;stroke-linecap:butt;stroke-linejoin:miter;stroke:rgb(0%,0%,0%);stroke-opacity:1;stroke-miterlimit:10;" d="M 196.140625 169.066406 L 207.148438 172.984375 "/>
<path style=" stroke:none;fill-rule:nonzero;fill:rgb(100%,100%,100%);fill-opacity:1;" d="M 181.132812 159.648438 L 189.132812 159.648438 L 189.132812 170.648438 L 181.132812 170.648438 Z M 181.132812 159.648438 "/>
<g style="fill:rgb(100%,0%,0%);fill-opacity:1;">
  <use xlink:href="#glyph0-2" x="181.132812" y="168.311523"/>
</g>
<path style=" stroke:none;fill-rule:nonzero;fill:rgb(0%,0%,0%);fill-opacity:1;" d="M 224.941406 157.835938 L 204.476562 169.84375 L 209.824219 176.121094 Z M 224.941406 157.835938 "/>
<path style="fill:none;stroke-width:1.2;stroke-linecap:butt;stroke-linejoin:miter;stroke:rgb(0%,0%,0%);stroke-opacity:1;stroke-miterlimit:10;" d="M 224.941406 157.835938 L 246.957031 165.667969 "/>
<path style="fill:none;stroke-width:1.2;stroke-linecap:butt;stroke-linejoin:miter;stroke:rgb(100%,0%,0%);stroke-opacity:1;stroke-miterlimit:10;" d="M 220.71875 134.851562 L 222.832031 146.34375 "/>
<path style="fill:none;stroke-width:1.2;stroke-linecap:butt;stroke-linejoin:miter;stroke:rgb(0%,0%,0%);stroke-opacity:1;stroke-miterlimit:10;" d="M 222.832031 146.34375 L 224.941406 157.835938 "/>
<path style="fill:none;stroke-width:1.2;stroke-linecap:butt;stroke-linejoin:miter;stroke:rgb(0%,0%,0%);stroke-opacity:1;stroke-miterlimit:10;" d="M 246.957031 165.667969 L 264.75 150.519531 "/>
<path style="fill:none;stroke-width:1;stroke-linecap:butt;stroke-linejoin:miter;stroke:rgb(0%,0%,0%);stroke-opacity:1;stroke-miterlimit:10;" d="M 246.957031 165.667969 L 246.957031 165.667969 M 246.976562 168.667969 L 248.003906 168.480469 M 247 171.667969 L 249.050781 171.292969 M 247.019531 174.667969 L 250.097656 174.105469 M 247.042969 177.667969 L 251.144531 176.914062 M 247.0625 180.667969 L 252.191406 179.726562 M 247.082031 183.667969 L 253.238281 182.539062 M 247.105469 186.667969 L 254.285156 185.351562 M 247.125 189.398438 L 255.234375 187.90625 "/>
<path style="fill:none;stroke-width:1.2;stroke-linecap:butt;stroke-linejoin:miter;stroke:rgb(0%,0%,0%);stroke-opacity:1;stroke-miterlimit:10;" d="M 264.75 150.519531 L 260.527344 127.539062 "/>
<path style="fill:none;stroke-width:1.2;stroke-linecap:butt;stroke-linejoin:miter;stroke:rgb(0%,0%,0%);stroke-opacity:1;stroke-miterlimit:10;" d="M 258.921875 149.214844 L 255.542969 130.828125 "/>
<path style="fill:none;stroke-width:1.2;stroke-linecap:butt;stroke-linejoin:miter;stroke:rgb(0%,0%,0%);stroke-opacity:1;stroke-miterlimit:10;" d="M 260.527344 127.539062 L 238.511719 119.703125 "/>
<path style="fill:none;stroke-width:1.2;stroke-linecap:butt;stroke-linejoin:miter;stroke:rgb(0%,0%,0%);stroke-opacity:1;stroke-miterlimit:10;" d="M 238.511719 119.703125 L 229.617188 127.277344 "/>
<path style="fill:none;stroke-width:1.2;stroke-linecap:butt;stroke-linejoin:miter;stroke:rgb(100%,0%,0%);stroke-opacity:1;stroke-miterlimit:10;" d="M 229.617188 127.277344 L 220.71875 134.851562 "/>
<path style="fill:none;stroke-width:1;stroke-linecap:butt;stroke-linejoin:miter;stroke:rgb(0%,0%,0%);stroke-opacity:1;stroke-miterlimit:10;" d="M 238.511719 119.703125 L 238.511719 119.703125 M 238.492188 116.703125 L 237.464844 116.890625 M 238.46875 113.703125 L 236.417969 114.082031 M 238.449219 110.703125 L 235.371094 111.269531 M 238.429688 107.703125 L 234.324219 108.457031 M 238.40625 104.703125 L 233.277344 105.644531 M 238.386719 101.703125 L 232.230469 102.835938 M 238.363281 98.703125 L 231.1875 100.023438 M 238.34375 95.976562 L 230.234375 97.464844 "/>
<path style=" stroke:none;fill-rule:nonzero;fill:rgb(100%,100%,100%);fill-opacity:1;" d="M 216.71875 129.351562 L 224.71875 129.351562 L 224.71875 140.351562 L 216.71875 140.351562 Z M 216.71875 129.351562 "/>
<g style="fill:rgb(100%,0%,0%);fill-opacity:1;">
  <use xlink:href="#glyph0-2" x="216.71875" y="138.014648"/>
</g>
<path style="fill:none;stroke-width:1.2;stroke-linecap:butt;stroke-linejoin:miter;stroke:rgb(0%,0%,0%);stroke-opacity:1;stroke-miterlimit:10;" d="M 234.289062 96.71875 L 252.082031 81.570312 "/>
<path style="fill:none;stroke-width:1.2;stroke-linecap:butt;stroke-linejoin:miter;stroke:rgb(0%,0%,0%);stroke-opacity:1;stroke-miterlimit:10;" d="M 232.503906 91.019531 L 246.738281 78.898438 "/>
<path style="fill:none;stroke-width:1.2;stroke-linecap:butt;stroke-linejoin:miter;stroke:rgb(0%,0%,0%);stroke-opacity:1;stroke-miterlimit:10;" d="M 212.273438 88.886719 L 234.289062 96.71875 "/>
<path style="fill:none;stroke-width:1.2;stroke-linecap:butt;stroke-linejoin:miter;stroke:rgb(0%,0%,0%);stroke-opacity:1;stroke-miterlimit:10;" d="M 252.082031 81.570312 L 247.859375 58.589844 "/>
<path style="fill:none;stroke-width:1.2;stroke-linecap:butt;stroke-linejoin:miter;stroke:rgb(0%,0%,0%);stroke-opacity:1;stroke-miterlimit:10;" d="M 247.859375 58.589844 L 225.84375 50.753906 "/>
<path style="fill:none;stroke-width:1.2;stroke-linecap:butt;stroke-linejoin:miter;stroke:rgb(0%,0%,0%);stroke-opacity:1;stroke-miterlimit:10;" d="M 243.816406 62.984375 L 226.203125 56.71875 "/>
<path style="fill:none;stroke-width:1.2;stroke-linecap:butt;stroke-linejoin:miter;stroke:rgb(0%,0%,0%);stroke-opacity:1;stroke-miterlimit:10;" d="M 225.84375 50.753906 L 208.050781 65.902344 "/>
<path style="fill:none;stroke-width:1.2;stroke-linecap:butt;stroke-linejoin:miter;stroke:rgb(0%,0%,0%);stroke-opacity:1;stroke-miterlimit:10;" d="M 208.050781 65.902344 L 212.273438 88.886719 "/>
<path style="fill:none;stroke-width:1.2;stroke-linecap:butt;stroke-linejoin:miter;stroke:rgb(0%,0%,0%);stroke-opacity:1;stroke-miterlimit:10;" d="M 213.882812 67.207031 L 217.261719 85.59375 "/>
<path style="fill:none;stroke-width:1.2;stroke-linecap:butt;stroke-linejoin:miter;stroke:rgb(100%,0%,0%);stroke-opacity:1;stroke-miterlimit:10;" d="M 251.179688 188.652344 L 242.285156 196.226562 "/>
<path style="fill:none;stroke-width:1.2;stroke-linecap:butt;stroke-linejoin:miter;stroke:rgb(0%,0%,0%);stroke-opacity:1;stroke-miterlimit:10;" d="M 242.285156 196.226562 L 233.386719 203.800781 "/>
<path style=" stroke:none;fill-rule:nonzero;fill:rgb(100%,100%,100%);fill-opacity:1;" d="M 247.179688 183.152344 L 255.179688 183.152344 L 255.179688 194.152344 L 247.179688 194.152344 Z M 247.179688 183.152344 "/>
<g style="fill:rgb(100%,0%,0%);fill-opacity:1;">
  <use xlink:href="#glyph0-2" x="247.179688" y="191.81543"/>
</g>
<path style="fill:none;stroke-width:1.2;stroke-linecap:butt;stroke-linejoin:miter;stroke:rgb(0%,0%,0%);stroke-opacity:1;stroke-miterlimit:10;" d="M 233.386719 203.800781 L 211.371094 195.964844 "/>
<path style="fill:none;stroke-width:1.2;stroke-linecap:butt;stroke-linejoin:miter;stroke:rgb(0%,0%,0%);stroke-opacity:1;stroke-miterlimit:10;" d="M 229.34375 208.199219 L 211.730469 201.929688 "/>
<path style="fill:none;stroke-width:1.2;stroke-linecap:butt;stroke-linejoin:miter;stroke:rgb(0%,0%,0%);stroke-opacity:1;stroke-miterlimit:10;" d="M 237.609375 226.785156 L 233.386719 203.800781 "/>
<path style="fill:none;stroke-width:1.2;stroke-linecap:butt;stroke-linejoin:miter;stroke:rgb(0%,0%,0%);stroke-opacity:1;stroke-miterlimit:10;" d="M 211.371094 195.964844 L 193.578125 211.113281 "/>
<path style="fill:none;stroke-width:1.2;stroke-linecap:butt;stroke-linejoin:miter;stroke:rgb(0%,0%,0%);stroke-opacity:1;stroke-miterlimit:10;" d="M 193.578125 211.113281 L 197.800781 234.097656 "/>
<path style="fill:none;stroke-width:1.2;stroke-linecap:butt;stroke-linejoin:miter;stroke:rgb(0%,0%,0%);stroke-opacity:1;stroke-miterlimit:10;" d="M 199.410156 212.417969 L 202.789062 230.804688 "/>
<path style="fill:none;stroke-width:1.2;stroke-linecap:butt;stroke-linejoin:miter;stroke:rgb(0%,0%,0%);stroke-opacity:1;stroke-miterlimit:10;" d="M 197.800781 234.097656 L 219.816406 241.933594 "/>
<path style="fill:none;stroke-width:1.2;stroke-linecap:butt;stroke-linejoin:miter;stroke:rgb(0%,0%,0%);stroke-opacity:1;stroke-miterlimit:10;" d="M 197.800781 234.097656 L 188.90625 241.671875 "/>
<path style="fill:none;stroke-width:1.2;stroke-linecap:butt;stroke-linejoin:miter;stroke:rgb(100%,0%,0%);stroke-opacity:1;stroke-miterlimit:10;" d="M 188.90625 241.671875 L 180.007812 249.246094 "/>
<path style="fill:none;stroke-width:1.2;stroke-linecap:butt;stroke-linejoin:miter;stroke:rgb(0%,0%,0%);stroke-opacity:1;stroke-miterlimit:10;" d="M 219.816406 241.933594 L 237.609375 226.785156 "/>
<path style="fill:none;stroke-width:1.2;stroke-linecap:butt;stroke-linejoin:miter;stroke:rgb(0%,0%,0%);stroke-opacity:1;stroke-miterlimit:10;" d="M 218.03125 236.230469 L 232.265625 224.113281 "/>
<path style="fill:none;stroke-width:1.2;stroke-linecap:butt;stroke-linejoin:miter;stroke:rgb(100%,0%,0%);stroke-opacity:1;stroke-miterlimit:10;" d="M 180.007812 249.246094 L 169 245.328125 "/>
<path style="fill:none;stroke-width:1.2;stroke-linecap:butt;stroke-linejoin:miter;stroke:rgb(0%,0%,0%);stroke-opacity:1;stroke-miterlimit:10;" d="M 169 245.328125 L 157.996094 241.410156 "/>
<path style=" stroke:none;fill-rule:nonzero;fill:rgb(100%,100%,100%);fill-opacity:1;" d="M 176.007812 243.746094 L 184.007812 243.746094 L 184.007812 254.746094 L 176.007812 254.746094 Z M 176.007812 243.746094 "/>
<g style="fill:rgb(100%,0%,0%);fill-opacity:1;">
  <use xlink:href="#glyph0-2" x="176.007812" y="252.40918"/>
</g>
<path style=" stroke:none;fill-rule:nonzero;fill:rgb(0%,0%,0%);fill-opacity:1;" d="M 119.089844 141.644531 L 98.621094 153.652344 L 103.96875 159.933594 Z M 119.089844 141.644531 "/>
<path style="fill:none;stroke-width:1.2;stroke-linecap:butt;stroke-linejoin:miter;stroke:rgb(0%,0%,0%);stroke-opacity:1;stroke-miterlimit:10;" d="M 119.089844 141.644531 L 116.976562 130.152344 "/>
<path style="fill:none;stroke-width:1.2;stroke-linecap:butt;stroke-linejoin:miter;stroke:rgb(100%,0%,0%);stroke-opacity:1;stroke-miterlimit:10;" d="M 116.976562 130.152344 L 114.867188 118.660156 "/>
<path style="fill:none;stroke-width:1.2;stroke-linecap:butt;stroke-linejoin:miter;stroke:rgb(0%,0%,0%);stroke-opacity:1;stroke-miterlimit:10;" d="M 101.296875 156.792969 L 88.9375 155.585938 "/>
<path style="fill:none;stroke-width:1.2;stroke-linecap:butt;stroke-linejoin:miter;stroke:rgb(0%,0%,0%);stroke-opacity:1;stroke-miterlimit:10;" d="M 101.296875 156.792969 L 105.519531 179.777344 "/>
<path style="fill:none;stroke-width:1.2;stroke-linecap:butt;stroke-linejoin:miter;stroke:rgb(100%,0%,0%);stroke-opacity:1;stroke-miterlimit:10;" d="M 114.867188 118.660156 L 103.859375 114.742188 "/>
<path style="fill:none;stroke-width:1.2;stroke-linecap:butt;stroke-linejoin:miter;stroke:rgb(0%,0%,0%);stroke-opacity:1;stroke-miterlimit:10;" d="M 103.859375 114.742188 L 92.851562 110.828125 "/>
<path style=" stroke:none;fill-rule:nonzero;fill:rgb(100%,100%,100%);fill-opacity:1;" d="M 110.867188 113.160156 L 118.867188 113.160156 L 118.867188 124.160156 L 110.867188 124.160156 Z M 110.867188 113.160156 "/>
<g style="fill:rgb(100%,0%,0%);fill-opacity:1;">
  <use xlink:href="#glyph0-2" x="110.867188" y="121.823242"/>
</g>
<path style="fill:none;stroke-width:1.2;stroke-linecap:butt;stroke-linejoin:miter;stroke:rgb(0%,0%,0%);stroke-opacity:1;stroke-miterlimit:10;" d="M 92.851562 110.828125 L 75.058594 125.976562 "/>
<path style="fill:none;stroke-width:1.2;stroke-linecap:butt;stroke-linejoin:miter;stroke:rgb(0%,0%,0%);stroke-opacity:1;stroke-miterlimit:10;" d="M 75.058594 125.976562 L 79.28125 148.957031 "/>
<path style="fill:none;stroke-width:1.2;stroke-linecap:butt;stroke-linejoin:miter;stroke:rgb(0%,0%,0%);stroke-opacity:1;stroke-miterlimit:10;" d="M 70.074219 129.265625 L 73.449219 147.652344 "/>
<path style="fill:none;stroke-width:1.2;stroke-linecap:butt;stroke-linejoin:miter;stroke:rgb(0%,0%,0%);stroke-opacity:1;stroke-miterlimit:10;" d="M 53.042969 118.140625 L 75.058594 125.976562 "/>
<path style="fill:none;stroke-width:1.2;stroke-linecap:butt;stroke-linejoin:miter;stroke:rgb(0%,0%,0%);stroke-opacity:1;stroke-miterlimit:10;" d="M 79.28125 148.957031 L 61.488281 164.105469 "/>
<path style="fill:none;stroke-width:1.2;stroke-linecap:butt;stroke-linejoin:miter;stroke:rgb(0%,0%,0%);stroke-opacity:1;stroke-miterlimit:10;" d="M 61.488281 164.105469 L 39.472656 156.273438 "/>
<path style="fill:none;stroke-width:1.2;stroke-linecap:butt;stroke-linejoin:miter;stroke:rgb(0%,0%,0%);stroke-opacity:1;stroke-miterlimit:10;" d="M 61.128906 158.144531 L 43.519531 151.875 "/>
<path style="fill:none;stroke-width:1.2;stroke-linecap:butt;stroke-linejoin:miter;stroke:rgb(0%,0%,0%);stroke-opacity:1;stroke-miterlimit:10;" d="M 39.472656 156.273438 L 35.25 133.289062 "/>
<path style="fill:none;stroke-width:1.2;stroke-linecap:butt;stroke-linejoin:miter;stroke:rgb(0%,0%,0%);stroke-opacity:1;stroke-miterlimit:10;" d="M 35.25 133.289062 L 53.042969 118.140625 "/>
<path style="fill:none;stroke-width:1.2;stroke-linecap:butt;stroke-linejoin:miter;stroke:rgb(0%,0%,0%);stroke-opacity:1;stroke-miterlimit:10;" d="M 40.59375 135.960938 L 54.828125 123.84375 "/>
</g>
</svg>

<svg xmlns="http://www.w3.org/2000/svg" xmlns:xlink="http://www.w3.org/1999/xlink" width="300pt" height="300pt" viewBox="0 0 300 300"><defs><symbol overflow="visible"><path d="M.453 1.594v-7.938h4.5v7.938zm.5-.5h3.5v-6.938h-3.5zm0 0"/></symbol><symbol overflow="visible" id="a"><path d="M.89-6.563H2.08l2.906 5.485v-5.484h.86V0H4.656L1.75-5.484V0H.89zm0 0"/></symbol><symbol overflow="visible" id="b"><path d="M3.547-5.953c-.65 0-1.164.242-1.547.72-.375.48-.563 1.13-.563 1.952 0 .835.188 1.49.563 1.967.383.48.898.72 1.547.72.644 0 1.156-.24 1.53-.72.376-.476.564-1.132.564-1.968 0-.822-.187-1.474-.562-1.954-.375-.477-.887-.72-1.53-.72zm0-.734c.914 0 1.648.312 2.203.937.55.617.828 1.438.828 2.47 0 1.042-.277 1.87-.828 2.483-.555.617-1.29.922-2.203.922-.93 0-1.668-.305-2.22-.922C.774-1.41.5-2.237.5-3.28c0-1.033.273-1.853.828-2.47.55-.625 1.29-.938 2.22-.938zm0 0"/></symbol></defs><g><path fill="#fff" d="M0 0h300v300H0z"/><path d="M141.105 149.48m2.586-1.52l-.674-.792m3.26-.727l-1.35-1.585m3.94.07l-2.026-2.382m4.613.863l-2.703-3.176m5.293 1.657l-3.383-3.97m5.97 2.454l-4.056-4.765m6.64 3.247l-4.73-5.56m7.086 4.177l-5.347-6.28" stroke="#000" stroke-miterlimit="10" fill="none"/><path d="M141.105 149.48l4.223 22.98M141.105 149.48l-22.015-7.835M145.328 172.46l11.004 3.92" stroke-width="1.2" stroke="#000" stroke-miterlimit="10" fill="none"/><path d="M156.332 176.38l11.008 3.917" stroke-width="1.2" stroke="#00f" stroke-miterlimit="10" fill="none"/><path d="M145.684 178.426l8.808 3.133" stroke-width="1.2" stroke="#000" stroke-miterlimit="10" fill="none"/><path d="M154.492 181.56l8.805 3.135M167.34 180.297l8.898-7.574" stroke-width="1.2" stroke="#00f" stroke-miterlimit="10" fill="none"/><path d="M176.238 172.723l8.895-7.575" stroke-width="1.2" stroke="#f00" stroke-miterlimit="10" fill="none"/><path d="M164.34 174.797h7v11h-7zm0 0" fill="#fff"/><use xlink:href="#a" x="164.34" y="183.46" fill="#00f"/><path d="M185.133 165.148l11.008 3.918" stroke-width="1.2" stroke="#f00" stroke-miterlimit="10" fill="none"/><path d="M196.14 169.066l11.008 3.918" stroke-width="1.2" stroke="#000" stroke-miterlimit="10" fill="none"/><path d="M181.133 159.648h8v11h-8zm0 0" fill="#fff"/><use xlink:href="#b" x="181.133" y="168.312" fill="#f00"/><path d="M224.94 157.836l-20.463 12.008 5.347 6.277zm0 0"/><path d="M224.94 157.836l22.017 7.832" stroke-width="1.2" stroke="#000" stroke-miterlimit="10" fill="none"/><path d="M220.72 134.852l2.112 11.492" stroke-width="1.2" stroke="#f00" stroke-miterlimit="10" fill="none"/><path d="M222.832 146.344l2.11 11.492M246.957 165.668l17.793-15.148" stroke-width="1.2" stroke="#000" stroke-miterlimit="10" fill="none"/><path d="M246.957 165.668m.02 3l1.027-.188M247 171.668l2.05-.375m-2.03 3.375l3.078-.563m-3.055 3.563l4.102-.754m-4.083 3.754l5.13-.94m-5.11 3.94l6.156-1.13m-6.133 4.13l7.18-1.316m-7.16 4.046l8.11-1.492" stroke="#000" stroke-miterlimit="10" fill="none"/><path d="M264.75 150.52l-4.223-22.98M258.922 149.215l-3.38-18.387M260.527 127.54l-22.015-7.837M238.512 119.703l-8.895 7.574" stroke-width="1.2" stroke="#000" stroke-miterlimit="10" fill="none"/><path d="M229.617 127.277l-8.898 7.575" stroke-width="1.2" stroke="#f00" stroke-miterlimit="10" fill="none"/><path d="M238.512 119.703m-.02-3l-1.027.188m1.004-3.187l-2.052.38m2.03-3.38l-3.077.567m3.06-3.567l-4.106.754m4.082-3.754l-5.13.942m5.11-3.942l-6.156 1.133m6.133-4.133l-7.175 1.32m7.156-4.046l-8.11 1.488" stroke="#000" stroke-miterlimit="10" fill="none"/><path d="M216.72 129.352h8v11h-8zm0 0" fill="#fff"/><use xlink:href="#b" x="216.719" y="138.015" fill="#f00"/><path d="M234.29 96.72l17.792-15.15M232.504 91.02l14.234-12.122M212.273 88.887l22.016 7.832M252.082 81.57l-4.223-22.98M247.86 58.59l-22.016-7.836M243.816 62.984l-17.613-6.265M225.844 50.754L208.05 65.902M208.05 65.902l4.223 22.985M213.883 67.207l3.38 18.387" stroke-width="1.2" stroke="#000" stroke-miterlimit="10" fill="none"/><path d="M251.18 188.652l-8.895 7.575" stroke-width="1.2" stroke="#f00" stroke-miterlimit="10" fill="none"/><path d="M242.285 196.227l-8.898 7.574" stroke-width="1.2" stroke="#000" stroke-miterlimit="10" fill="none"/><path d="M247.18 183.152h8v11h-8zm0 0" fill="#fff"/><use xlink:href="#b" x="247.18" y="191.815" fill="#f00"/><path d="M233.387 203.8l-22.016-7.835M229.344 208.2l-17.614-6.27M237.61 226.785l-4.223-22.984M211.37 195.965l-17.792 15.148M193.578 211.113l4.223 22.985M199.41 212.418l3.38 18.387M197.8 234.098l22.016 7.836M197.8 234.098l-8.894 7.574" stroke-width="1.2" stroke="#000" stroke-miterlimit="10" fill="none"/><path d="M188.906 241.672l-8.898 7.574" stroke-width="1.2" stroke="#f00" stroke-miterlimit="10" fill="none"/><path d="M219.816 241.934l17.793-15.15M218.03 236.23l14.236-12.117" stroke-width="1.2" stroke="#000" stroke-miterlimit="10" fill="none"/><path d="M180.008 249.246L169 245.328" stroke-width="1.2" stroke="#f00" stroke-miterlimit="10" fill="none"/><path d="M169 245.328l-11.004-3.918" stroke-width="1.2" stroke="#000" stroke-miterlimit="10" fill="none"/><path d="M176.008 243.746h8v11h-8zm0 0" fill="#fff"/><use xlink:href="#b" x="176.008" y="252.409" fill="#f00"/><path d="M119.09 141.645l-20.47 12.007 5.35 6.282zm0 0"/><path d="M119.09 141.645l-2.113-11.493" stroke-width="1.2" stroke="#000" stroke-miterlimit="10" fill="none"/><path d="M116.977 130.152l-2.11-11.492" stroke-width="1.2" stroke="#f00" stroke-miterlimit="10" fill="none"/><path d="M101.297 156.793l-12.36-1.207M101.297 156.793l4.223 22.984" stroke-width="1.2" stroke="#000" stroke-miterlimit="10" fill="none"/><path d="M114.867 118.66l-11.008-3.918" stroke-width="1.2" stroke="#f00" stroke-miterlimit="10" fill="none"/><path d="M103.86 114.742l-11.008-3.914" stroke-width="1.2" stroke="#000" stroke-miterlimit="10" fill="none"/><path d="M110.867 113.16h8v11h-8zm0 0" fill="#fff"/><use xlink:href="#b" x="110.867" y="121.823" fill="#f00"/><path d="M92.852 110.828l-17.793 15.15M75.06 125.977l4.22 22.98M70.074 129.266l3.375 18.386M53.043 118.14l22.016 7.837M79.28 148.957L61.49 164.105M61.488 164.105l-22.015-7.832M61.13 158.145l-17.61-6.27M39.473 156.273L35.25 133.29M35.25 133.29l17.793-15.15M40.594 135.96l14.234-12.116" stroke-width="1.2" stroke="#000" stroke-miterlimit="10" fill="none"/></g></svg>
